X:1
T: Union Street Session
C: Paul S. Cranford
R: reel
M: 4/4
L: 1/8
K: Dmaj
|:c|"D"{c}d2 AG !trill!F2DF|"A7"EA,A,2 GFED|"D"{DE}F2 AF "G"GABd|"A"AEE2 cdec|
"D"{c}d2 AG !trill!F2 DF|"A7"EA,A,2 GFED|"D"{DE}F2 AF "G"GABd|"A"AEEG "D"FD D:|
|:c|"D"{c}d2 fd "G"gd"D"fa|"A"eA A/A/A cdec|"D"{c}d2 fd "Em"!trill!g2 fg|"A"aeeg !trill!f2 ec|
"D"{c}d2 fd "G"gd"D"fa|"A"eA A/A/A cdeg|"D"!trill!f2 ed "Em"{d}e2 cd|"A7"{d}e2 dc "D"{c}d2 A:|
